assets/images/audience/entrepreneurs-icon.svg

<svg xmlns="http://www.w3.org/2000/svg" xmlns:xlink="http://www.w3.org/1999/xlink" width="500" zoomAndPan="magnify" viewBox="0 0 375 374.999991" height="500" preserveAspectRatio="xMidYMid meet" version="1.0"><defs><clipPath id="c62137a641"><path d="M 91 94 L 283.71875 94 L 283.71875 305 L 91 305 Z M 91 94 " clip-rule="nonzero"/></clipPath><clipPath id="0adda35e99"><path d="M 91 94 L 283.71875 94 L 283.71875 305 L 91 305 Z M 91 94 " clip-rule="nonzero"/></clipPath></defs><g clip-path="url(#c62137a641)"><path fill="#000000" d="M 280.054688 94.738281 L 254.242188 101.550781 C 254.105469 101.585938 253.980469 101.640625 253.859375 101.695312 L 189.820312 118.59375 L 153.667969 118.59375 C 153.023438 118.59375 152.402344 118.683594 151.808594 118.835938 C 135.074219 121.4375 117.777344 142.835938 114.398438 147.207031 C 112.71875 149.386719 112.316406 152.292969 113.347656 154.847656 L 122.820312 178.347656 L 123.976562 181.214844 L 118.425781 178.96875 L 114.933594 187.644531 L 105.605469 183.871094 L 91.027344 220.0625 L 137.4375 238.835938 L 152.015625 202.644531 L 142.691406 198.875 L 146.183594 190.199219 L 140.078125 187.730469 C 140.445312 187.082031 140.722656 186.386719 140.894531 185.660156 C 141.25 184.152344 141.167969 182.523438 140.542969 180.980469 L 129.382812 153.292969 C 134.117188 147.75 140.460938 141.554688 146.207031 137.726562 L 146.207031 187.808594 L 149.074219 188.96875 L 145.578125 197.640625 L 154.90625 201.414062 L 138.664062 241.734375 L 129.457031 238.007812 L 109.851562 288.585938 C 107.464844 294.746094 110.511719 301.675781 116.65625 304.070312 C 122.800781 306.460938 129.71875 303.410156 132.109375 297.25 L 167.660156 205.53125 C 170.066406 210.765625 175.980469 213.601562 181.667969 211.953125 L 211.976562 203.175781 L 222.03125 239.085938 C 223.496094 244.320312 228.246094 247.742188 233.414062 247.742188 C 234.472656 247.742188 235.546875 247.597656 236.617188 247.296875 C 242.90625 245.527344 246.574219 238.984375 244.808594 232.679688 L 231.53125 185.265625 C 230.679688 182.222656 228.652344 179.648438 225.894531 178.113281 C 223.140625 176.574219 219.886719 176.207031 216.859375 177.082031 L 198.433594 182.417969 L 198.433594 132.328125 L 267.464844 114.113281 C 269.96875 113.453125 269.503906 107.683594 267.828125 103.492188 L 281.414062 99.90625 C 282.835938 99.53125 283.6875 98.070312 283.3125 96.644531 C 282.9375 95.214844 281.480469 94.363281 280.054688 94.738281 Z M 138.660156 197.242188 L 118.960938 189.273438 L 120.828125 184.636719 L 126.246094 186.828125 C 126.914062 188.453125 128.074219 189.710938 129.480469 190.539062 C 130.136719 190.921875 130.839844 191.207031 131.574219 191.382812 C 132.167969 191.527344 132.769531 191.621094 133.386719 191.621094 C 134.347656 191.621094 135.328125 191.4375 136.277344 191.054688 C 136.34375 191.027344 136.40625 190.992188 136.472656 190.964844 L 140.527344 192.605469 Z M 172.320312 188.957031 L 163.148438 177.34375 L 168.429688 138.328125 C 169.683594 138.800781 171 139.042969 172.316406 139.042969 L 172.320312 139.042969 C 172.320312 139.042969 172.324219 139.042969 172.324219 139.042969 C 173.640625 139.042969 174.957031 138.796875 176.207031 138.328125 L 181.492188 177.34375 Z M 168.648438 126.542969 L 175.988281 126.542969 L 177.824219 133.800781 L 177.542969 134.242188 C 176.03125 135.507812 174.179688 136.140625 172.316406 136.140625 C 170.457031 136.140625 168.609375 135.507812 167.097656 134.246094 L 166.816406 133.800781 Z M 168.648438 126.542969 " fill-opacity="1" fill-rule="nonzero"/></g><path fill="#000000" d="M 155.03125 99.785156 C 158.722656 111.222656 170.972656 117.496094 182.386719 113.796875 C 193.804688 110.09375 200.0625 97.816406 196.367188 86.378906 C 192.675781 74.9375 180.429688 68.664062 169.011719 72.367188 C 157.597656 76.066406 151.335938 88.34375 155.03125 99.785156 Z M 193.683594 97.699219 C 193.683594 97.699219 184.503906 116.957031 170.359375 100.742188 C 170.359375 100.742188 184.734375 103.433594 193.683594 97.699219 Z M 193.683594 97.699219 " fill-opacity="1" fill-rule="nonzero"/><path fill="#000000" d="M 258.902344 247.417969 L 239.589844 255.160156 L 224.785156 255.160156 L 206.121094 260.96875 L 179.726562 266.773438 L 166.210938 291.609375 L 153.980469 298.382812 L 150.761719 303.542969 L 281.433594 303.542969 L 268.558594 256.449219 Z M 258.902344 247.417969 " fill-opacity="1" fill-rule="nonzero"/><path fill="#000000" d="M 276.921875 161.8125 C 276.921875 151.125 268.277344 142.457031 257.613281 142.457031 C 246.945312 142.457031 238.300781 151.125 238.300781 161.8125 C 238.300781 172.5 246.945312 181.164062 257.613281 181.164062 C 268.277344 181.164062 276.921875 172.5 276.921875 161.8125 Z M 257.613281 177.476562 C 248.992188 177.476562 241.980469 170.453125 241.980469 161.816406 C 241.980469 153.175781 248.992188 146.144531 257.613281 146.144531 C 266.230469 146.144531 273.242188 153.175781 273.242188 161.816406 C 273.242188 170.453125 266.230469 177.476562 257.613281 177.476562 Z M 257.613281 177.476562 " fill-opacity="1" fill-rule="nonzero"/><g clip-path="url(#0adda35e99)"><path fill="#0cc0df" d="M 280.355469 94.722656 L 254.5 101.53125 C 254.363281 101.566406 254.238281 101.621094 254.117188 101.675781 L 189.976562 118.5625 L 153.765625 118.5625 C 153.121094 118.5625 152.5 118.652344 151.902344 118.808594 C 135.144531 121.40625 117.820312 142.789062 114.4375 147.160156 C 112.753906 149.335938 112.351562 152.242188 113.382812 154.796875 L 122.871094 178.285156 L 124.03125 181.148438 L 118.472656 178.90625 L 114.972656 187.574219 L 105.628906 183.804688 L 91.027344 219.972656 L 137.511719 238.734375 L 152.113281 202.566406 L 142.769531 198.796875 L 146.269531 190.128906 L 140.15625 187.660156 C 140.523438 187.011719 140.800781 186.316406 140.972656 185.589844 C 141.332031 184.085938 141.246094 182.457031 140.621094 180.914062 L 129.441406 153.242188 C 134.1875 147.703125 140.539062 141.511719 146.292969 137.6875 L 146.292969 187.738281 L 149.164062 188.898438 L 145.664062 197.566406 L 155.007812 201.335938 L 138.742188 241.628906 L 129.519531 237.90625 L 109.882812 288.457031 C 107.488281 294.613281 110.542969 301.539062 116.699219 303.929688 C 122.851562 306.320312 129.78125 303.269531 132.171875 297.113281 L 167.78125 205.449219 C 170.191406 210.679688 176.113281 213.515625 181.8125 211.867188 L 212.167969 203.097656 L 222.242188 238.988281 C 223.707031 244.214844 228.460938 247.636719 233.640625 247.636719 C 234.699219 247.636719 235.777344 247.492188 236.847656 247.191406 C 243.144531 245.425781 246.820312 238.882812 245.050781 232.585938 L 231.753906 185.199219 C 230.902344 182.15625 228.871094 179.582031 226.109375 178.046875 C 223.347656 176.511719 220.089844 176.140625 217.058594 177.019531 L 198.601562 182.351562 L 198.601562 132.292969 L 267.746094 114.085938 C 270.25 113.425781 269.785156 107.660156 268.109375 103.46875 L 281.714844 99.886719 C 283.140625 99.511719 283.992188 98.050781 283.617188 96.625 C 283.242188 95.199219 281.78125 94.347656 280.355469 94.722656 Z M 138.734375 197.167969 L 119.007812 189.203125 L 120.875 184.570312 L 126.300781 186.757812 C 126.96875 188.378906 128.132812 189.640625 129.542969 190.464844 C 130.199219 190.851562 130.902344 191.132812 131.640625 191.3125 C 132.230469 191.457031 132.835938 191.546875 133.453125 191.546875 C 134.417969 191.546875 135.398438 191.367188 136.347656 190.980469 C 136.414062 190.957031 136.476562 190.921875 136.542969 190.890625 L 140.605469 192.53125 Z M 172.449219 188.886719 L 163.261719 177.28125 L 168.550781 138.289062 C 169.808594 138.757812 171.125 139.003906 172.445312 139.003906 L 172.449219 139.003906 C 172.449219 139.003906 172.453125 139.003906 172.453125 139.003906 C 173.773438 139.003906 175.089844 138.757812 176.34375 138.285156 L 181.636719 177.28125 Z M 168.773438 126.507812 L 176.121094 126.507812 L 177.960938 133.761719 L 177.679688 134.203125 C 176.167969 135.464844 174.3125 136.097656 172.445312 136.101562 C 170.582031 136.097656 168.730469 135.46875 167.21875 134.207031 L 166.933594 133.761719 Z M 168.773438 126.507812 " fill-opacity="1" fill-rule="nonzero"/></g><path fill="#0cc0df" d="M 155.132812 99.765625 C 158.832031 111.199219 171.101562 117.46875 182.53125 113.769531 C 193.96875 110.066406 200.234375 97.800781 196.535156 86.367188 C 192.835938 74.933594 180.570312 68.664062 169.132812 72.363281 C 157.703125 76.0625 151.429688 88.332031 155.132812 99.765625 Z M 193.847656 97.683594 C 193.847656 97.683594 184.648438 116.929688 170.484375 100.722656 C 170.484375 100.722656 184.882812 103.410156 193.847656 97.683594 Z M 193.847656 97.683594 " fill-opacity="1" fill-rule="nonzero"/><path fill="#0cc0df" d="M 259.167969 247.3125 L 239.828125 255.050781 L 225 255.050781 L 206.300781 260.851562 L 179.867188 266.65625 L 166.328125 291.476562 L 154.082031 298.246094 L 150.855469 303.402344 L 281.734375 303.402344 L 268.839844 256.339844 Z M 259.167969 247.3125 " fill-opacity="1" fill-rule="nonzero"/><path fill="#0cc0df" d="M 277.21875 161.757812 C 277.21875 151.074219 268.558594 142.414062 257.875 142.414062 C 247.195312 142.414062 238.535156 151.074219 238.535156 161.757812 C 238.535156 172.441406 247.195312 181.097656 257.875 181.097656 C 268.558594 181.097656 277.21875 172.441406 277.21875 161.757812 Z M 257.875 177.410156 C 249.242188 177.410156 242.222656 170.390625 242.222656 161.761719 C 242.222656 153.125 249.242188 146.101562 257.875 146.101562 C 266.507812 146.101562 273.53125 153.125 273.53125 161.761719 C 273.53125 170.390625 266.507812 177.410156 257.875 177.410156 Z M 257.875 177.410156 " fill-opacity="1" fill-rule="nonzero"/></svg>

<svg xmlns="http://www.w3.org/2000/svg" width="500" height="500" viewBox="0 0 375 375">
  <defs>
    <clipPath id="a">
      <path d="M91 94h192.719v211H91Zm0 0"/>
    </clipPath>
    <clipPath id="b">
      <path d="M91 94h192.719v211H91Zm0 0"/>
    </clipPath>
  </defs>
  <g clip-path="url(#a)">
    <path d="m280.055 94.738-25.813 6.813a2.4 2.4 0 0 0-.383.144l-64.039 16.899h-36.152c-.645 0-1.266.09-1.86.242-16.734 2.602-34.03 24-37.41 28.371a7.76 7.76 0 0 0-1.05 7.64l9.472 23.5 1.157 2.868-5.551-2.246-3.492 8.676-9.329-3.774-14.578 36.191 46.41 18.774 14.579-36.191-9.325-3.77 3.493-8.676-6.106-2.469a7.9 7.9 0 0 0 .817-2.07 7.7 7.7 0 0 0-.352-4.68l-11.16-27.687c4.734-5.543 11.078-11.738 16.824-15.566v50.082l2.867 1.16-3.496 8.672 9.328 3.773-16.242 40.32-9.207-3.726-19.605 50.578c-2.387 6.16.66 13.09 6.804 15.484 6.145 2.39 13.063-.66 15.453-6.82l35.551-91.719c2.406 5.235 8.32 8.07 14.008 6.422l30.309-8.777 10.054 35.91a11.84 11.84 0 0 0 11.383 8.656 11.8 11.8 0 0 0 3.203-.445c6.29-1.77 9.957-8.313 8.192-14.617l-13.278-47.414a11.83 11.83 0 0 0-14.672-8.184l-18.425 5.336v-50.09l69.03-18.215c2.505-.66 2.04-6.43.364-10.62l13.586-3.587a2.67 2.67 0 0 0 1.899-3.261 2.666 2.666 0 0 0-3.258-1.907M138.66 197.242l-19.7-7.969 1.868-4.636 5.418 2.191a7.68 7.68 0 0 0 3.234 3.711 7.7 7.7 0 0 0 2.094.844 7.6 7.6 0 0 0 1.813.238c.96 0 1.941-.184 2.89-.566.067-.028.13-.063.196-.09l4.054 1.64Zm33.66-8.285-9.172-11.613 5.282-39.016c1.254.473 2.57.715 3.886.715h.008c1.317 0 2.633-.246 3.883-.715l5.285 39.016Zm-3.672-62.414h7.34l1.836 7.258-.281.441a8.1 8.1 0 0 1-5.227 1.899 8.12 8.12 0 0 1-5.218-1.895l-.282-.445Zm0 0"/>
  </g>
  <path d="M155.031 99.785c3.692 11.438 15.942 17.711 27.356 14.012 11.418-3.703 17.676-15.98 13.98-27.418-3.691-11.442-15.937-17.715-27.355-14.012-11.414 3.7-17.676 15.977-13.98 27.418m38.653-2.086s-9.18 19.258-23.325 3.043c0 0 14.375 2.692 23.325-3.043M258.902 247.418l-19.312 7.742h-14.805l-18.664 5.809-26.394 5.804-13.516 24.836-12.23 6.774-3.22 5.16h130.673l-12.875-47.094ZM276.922 161.813c0-10.688-8.645-19.356-19.309-19.356-10.668 0-19.312 8.668-19.312 19.356 0 10.687 8.644 19.351 19.312 19.351 10.664 0 19.309-8.664 19.309-19.351m-19.309 15.664c-8.62 0-15.633-7.024-15.633-15.66 0-8.641 7.012-15.672 15.633-15.672 8.617 0 15.63 7.03 15.63 15.671 0 8.637-7.013 15.66-15.63 15.66m0 0"/>
  <g clip-path="url(#b)">
    <path fill="#0cc0df" d="M280.355 94.723 254.5 101.53a2.4 2.4 0 0 0-.383.145l-64.14 16.886h-36.211a7.3 7.3 0 0 0-1.864.247c-16.757 2.597-34.082 23.98-37.464 28.351a7.74 7.74 0 0 0-1.055 7.637l9.488 23.488 1.16 2.863-5.558-2.242-3.5 8.668-9.344-3.77-14.602 36.169 46.485 18.761 14.601-36.168-9.343-3.77 3.5-8.667-6.114-2.469a7.9 7.9 0 0 0 .817-2.07 7.67 7.67 0 0 0-.352-4.676l-11.18-27.672c4.746-5.539 11.098-11.73 16.852-15.554v50.05l2.871 1.16-3.5 8.668 9.344 3.77-16.266 40.293-9.222-3.723-19.637 50.551c-2.395 6.156.66 13.082 6.816 15.473 6.153 2.39 13.082-.66 15.473-6.817l35.61-91.664c2.41 5.23 8.331 8.067 14.03 6.418l30.356-8.77 10.074 35.891c1.465 5.227 6.219 8.649 11.399 8.649 1.058 0 2.136-.145 3.207-.446 6.297-1.765 9.972-8.308 8.203-14.605l-13.297-47.387a11.841 11.841 0 0 0-14.695-8.18l-18.457 5.333v-50.059l69.144-18.207c2.504-.66 2.04-6.426.363-10.617l13.606-3.582a2.67 2.67 0 0 0-1.36-5.164m-141.62 102.445-19.727-7.965 1.867-4.633 5.426 2.188a7.66 7.66 0 0 0 3.242 3.707c.656.387 1.36.668 2.098.847a7.6 7.6 0 0 0 1.812.235 7.7 7.7 0 0 0 2.895-.567c.066-.023.129-.058.195-.09l4.062 1.641Zm33.714-8.281-9.187-11.606 5.289-38.992c1.258.469 2.574.715 3.894.715h.008c1.32 0 2.637-.246 3.89-.719l5.294 38.996Zm-3.676-62.38h7.348l1.84 7.255-.281.441a8.17 8.17 0 0 1-5.235 1.899 8.15 8.15 0 0 1-5.226-1.895l-.285-.445Zm0 0"/>
  </g>
  <path fill="#0cc0df" d="M155.133 99.766c3.699 11.433 15.969 17.703 27.398 14.004 11.438-3.704 17.703-15.97 14.004-27.403-3.7-11.433-15.965-17.703-27.402-14.004-11.43 3.7-17.703 15.969-14 27.403m38.715-2.082s-9.2 19.246-23.364 3.039c0 0 14.399 2.687 23.364-3.04M259.168 247.313l-19.34 7.738H225l-18.7 5.8-26.433 5.805-13.539 24.82-12.246 6.77-3.227 5.156h130.88L268.84 256.34ZM277.219 161.758c0-10.684-8.66-19.344-19.344-19.344-10.68 0-19.34 8.66-19.34 19.344 0 10.683 8.66 19.34 19.34 19.34 10.684 0 19.344-8.657 19.344-19.34m-19.344 15.652c-8.633 0-15.652-7.02-15.652-15.648 0-8.637 7.02-15.66 15.652-15.66s15.656 7.023 15.656 15.66c0 8.629-7.023 15.648-15.656 15.648m0 0"/>
</svg>
